svgs/sharp-thin/trash-can-list.svg

<svg xmlns="http://www.w3.org/2000/svg" viewBox="0 0 640 512"><!--! Font Awesome Pro 6.5.2 by @fontawesome - https://fontawesome.com License - https://fontawesome.com/license (Commercial License) Copyright 2024 Fonticons, Inc. --><path d="M147.6 0l-2.4 3.8L107.6 64H0V80H416V64H308.4L270.8 3.8 268.4 0H264 152h-4.4zm112 16l30 48H126.4l30-48H259.6zM48 120v-8H32v8V504v8h8H376h8v-8V120v-8H368v8V496H48V120zm120 32H152v8V416v8h16v-8V160v-8zm96 0H248v8V416v8h16v-8V160v-8zm376-24H448v16H640V128zM608 256H448v16H608V256zM448 384v16h96V384H448z"/></svg>

<svg xmlns="http://www.w3.org/2000/svg" viewBox="0 0 640 512"><!--! Font Awesome Pro 6.6.0 by @fontawesome - https://fontawesome.com License - https://fontawesome.com/license (Commercial License) Copyright 2024 Fonticons, Inc. --><path d="M147.6 0l-2.4 3.8L107.6 64 0 64 0 80l416 0 0-16L308.4 64 270.8 3.8 268.4 0 264 0 152 0l-4.4 0zm112 16l30 48L126.4 64l30-48 103.1 0zM48 120l0-8-16 0 0 8 0 384 0 8 8 0 336 0 8 0 0-8 0-384 0-8-16 0 0 8 0 376L48 496l0-376zm120 32l-16 0 0 8 0 256 0 8 16 0 0-8 0-256 0-8zm96 0l-16 0 0 8 0 256 0 8 16 0 0-8 0-256 0-8zm376-24l-192 0 0 16 192 0 0-16zM608 256l-160 0 0 16 160 0 0-16zM448 384l0 16 96 0 0-16-96 0z"/></svg>
